X:0
T:Tibbie Fowler of the Glen
G:country dance
S:Duke of Perth MS (NLS MS 21715)
M:C|
L:1/8
Q:1/2=96
K:DDor
E|DGGA ^F>GAc|BGGA ^F>EDE|G/G/G GA ^FGAc|dGGA ^F>ED:|
a|fddf  c>dcA|fdde  f>gag|fddf      AFcA|dGGA ^F>ED:|
